src/components/Dashboard/Widget/icons/settings.svg

<?xml version="1.0" encoding="UTF-8"?>
<svg width="20px" height="20px" viewBox="0 0 20 20" version="1.1" xmlns="http://www.w3.org/2000/svg" xmlns:xlink="http://www.w3.org/1999/xlink">
    <defs>
        <path d="M16,9.33333333 L16,6.66666667 L13.1426667,6.66666667 C13.0173333,6.18266667 12.8253333,5.728 12.5773333,5.308 L14.5986667,3.28666667 L12.7133333,1.4 L10.6933333,3.42133333 C10.2706667,3.17333333 9.81733333,2.98133333 9.33333333,2.856 L9.33333333,0 L6.66666667,0 L6.66666667,2.856 C6.18266667,2.98266667 5.72933333,3.17333333 5.30666667,3.42266667 L3.28666667,1.4 L1.40133333,3.28533333 L3.42133333,5.30666667 C3.17466667,5.728 2.98133333,6.18133333 2.85733333,6.66666667 L0,6.66666667 L0,9.33333333 L2.85733333,9.33333333 C2.98266667,9.81733333 3.17466667,10.272 3.42266667,10.692 L1.40133333,12.7146667 L3.28666667,14.6 L5.308,12.5786667 C5.72933333,12.8266667 6.18266667,13.0186667 6.668,13.1453333 L6.668,16 L9.33466667,16 L9.33466667,13.144 C9.81866667,13.0173333 10.272,12.8253333 10.6946667,12.5773333 L12.716,14.5986667 L14.6013333,12.7133333 L12.58,10.6906667 C12.828,10.2706667 13.02,9.81733333 13.1453333,9.332 L16,9.332 L16,9.33333333 Z M8,10.6666667 C6.528,10.6666667 5.33333333,9.47066667 5.33333333,8 C5.33333333,6.53066667 6.528,5.33333333 8,5.33333333 C9.472,5.33333333 10.6666667,6.53066667 10.6666667,8 C10.6666667,9.46933333 9.472,10.6666667 8,10.6666667 Z" id="path-settings"></path>
    </defs>
    <g id="Symbols" stroke="none" stroke-width="1" fill="none" fill-rule="evenodd">
        <g id="Icons/Settings">
            <g id="settings" transform="translate(2.000000, 2.000000)">
                <mask id="mask-2" fill="white">
                    <use xlink:href="#path-settings"></use>
                </mask>
                <use id="Settings" fill="#767676" fill-rule="nonzero" xlink:href="#path-settings"></use>
                <g id="Tints/Grey-med" mask="url(#mask-2)" fill="#797979">
                    <g transform="translate(-2.000000, -2.000000)" id="Rectangle-5">
                        <rect x="0" y="0" width="20" height="20"></rect>
                    </g>
                </g>
            </g>
        </g>
    </g>
</svg>

<svg xmlns="http://www.w3.org/2000/svg" xmlns:xlink="http://www.w3.org/1999/xlink" width="20" height="20" viewBox="0 0 20 20">
    <defs>
        <path id="a" d="M16 9.333V6.667h-2.857a5.263 5.263 0 0 0-.566-1.359L14.6 3.287 12.713 1.4l-2.02 2.021a5.31 5.31 0 0 0-1.36-.565V0H6.667v2.856a5.314 5.314 0 0 0-1.36.567L3.287 1.4 1.4 3.285l2.02 2.022c-.246.421-.44.874-.564 1.36H0v2.666h2.857c.126.484.318.939.566 1.359L1.4 12.715 3.287 14.6l2.021-2.021c.421.248.875.44 1.36.566V16h2.667v-2.856a5.362 5.362 0 0 0 1.36-.567l2.021 2.022 1.885-1.886-2.021-2.022c.248-.42.44-.874.565-1.359H16v.001zm-8 1.334A2.668 2.668 0 0 1 5.333 8 2.67 2.67 0 0 1 8 5.333 2.67 2.67 0 0 1 10.667 8 2.67 2.67 0 0 1 8 10.667z"/>
    </defs>
    <g fill="none" fill-rule="evenodd" transform="translate(2 2)">
        <mask id="b" fill="#fff">
            <use xlink:href="#a"/>
        </mask>
        <use fill="#767676" fill-rule="nonzero" xlink:href="#a"/>
        <g fill="#797979" mask="url(#b)">
            <path d="M-2-2h20v20H-2z"/>
        </g>
    </g>
</svg>
